shader distort (
	color Cin=1,
output  color Cout=1
)
{
    float s=(float)noise("uperlin",P*10)*0.5;
    float noisep = noise("uperlin",s*10,s*5);
    color ribs = (P+N) * 1.1 * smoothstep(0.1, 0.8, 1.0 - v);
    // color ribNoise = ((color)noisep + ribs) * abs(v - 1.0);
    color ribNoise = ((color)noisep + ribs) * abs(v - 1.0);
    Cout = ribNoise;
}

