shader distort (
	color Cin=1,
output  color Cout=1
)
{
    float s=(float)noise("uperlin",P*10)*0.5;
    float noisep = noise("uperlin",s*10,s*5);
    color ribs = (P+N) * 2.0;
    color ribNoise = ((color)noisep + ribs) * abs(v - 1.0);
    Cout = ribNoise;
}

